libs/shared/images/icons-sharp-light/file-lines.svg

<svg xmlns="http://www.w3.org/2000/svg" viewBox="0 0 384 512"><defs><style>.fa-secondary{opacity:.4}</style></defs><path class="fa-secondary" d="M0 0L224 0l0 160 160 0 0 352L0 512 0 0zM96 256l0 32 16 0 160 0 16 0 0-32-16 0-160 0-16 0zm0 64l0 32 16 0 160 0 16 0 0-32-16 0-160 0-16 0zm0 64l0 32 16 0 160 0 16 0 0-32-16 0-160 0-16 0z"/><path class="fa-primary" d="M384 160L224 0l0 160 160 0zM112 256l-16 0 0 32 16 0 160 0 16 0 0-32-16 0-160 0zm0 64l-16 0 0 32 16 0 160 0 16 0 0-32-16 0-160 0zm0 64l-16 0 0 32 16 0 160 0 16 0 0-32-16 0-160 0z"/></svg>

<svg xmlns="http://www.w3.org/2000/svg" viewBox="0 0 384 512"><path d="M352 480H32V32H192V176v16h16H352V480zM224 37.3L346.7 160H224V37.3zM232 0H32 0V32 480v32H32 352h32V480 152L232 0zM112 256H96v32h16H272h16V256H272 112zm0 64H96v32h16H272h16V320H272 112zm0 64H96v32h16H272h16V384H272 112z"/></svg>
